X:1
T:Cameronia, LM
T:Cameronia, LM
T:Scottish Hymn Tune
T:Public Domain Courtesy of the Cyber Hymnal™
C:Scottish Hymn Tune
Z:Public Domain
Z:Courtesy of the Cyber Hymnal™
%%score ( 1 2 ) ( 3 4 )
L:1/8
Q:1/4=105
M:none
K:Bb
V:1 treble 
V:2 treble 
V:3 bass 
V:4 bass 
V:1
 F2 | [FB]2 (dc) [DB]2 F2 | [EG]2 [FB]2 [Fc]2 ([Fd][Ge]) | [Ff]3 [Fc] ([Ee][Fd]) (cB) | %4
 d2 z !fermata![DB]2 F2 x2 | [EB]3 F [EG]2 (FD) | C2 E[DF] [DG]2 [CF]2 | %7
 [EG]2 B2 [B,F]2 ([Ge][Dd]) | d2 z !fermata![DB]2 x |] %9
V:2
 F2 | x2 F2 x F2 x | x8 | x6 G2 | F3 c2 E x (CD) | x3 F x B,2 x | B,3 x5 | x2 DC x4 | F3 (c2 E) |] %9
V:3
 F,2 | [B,D]2 [F,A,]2 [G,B,]2 [D,B,]2 | [E,B,]2 [D,B,]2 [F,A,]2 B,2 | [A,C]3 [A,C] B,2 [E,B,]2 | %4
 [F,B,]2 [F,A,]2 !fermata![B,,B,]2 [F,A,]2 x | [G,B,]3 [D,B,] [E,B,]2 B,2 | %6
 [E,G,]2 F,2 [G,,B,]2 [A,,F,]2 | B,2 z (F, B,) ([E,C][G,B,]) x | %8
 [F,B,]2 [F,A,]2 !fermata![B,,B,]2 |] %9
V:4
 F,2 | x8 | x6 (B,G,) | x4 (G,F,) x2 | x9 | x6 (D,B,,) | x2 (D,B,,) x4 | B,,3 (F,2 C,) D,2 | x6 |] %9

